X:1
T:Come unto Me (Dykes), 76.76 D
T:Come unto Me (Dykes), 76.76 D
T:John Bacchus Dykes, 1875
T:Public Domain Courtesy of the Cyber Hymnal™
C:John Bacchus Dykes, 1875
Z:Public Domain
Z:Courtesy of the Cyber Hymnal™
%%score ( 1 2 ) ( 3 4 )
L:1/8
Q:1/4=110
M:4/4
K:G
V:1 treble 
V:2 treble 
V:3 bass 
V:4 bass 
V:1
 z2 | [B,D]4 E2 D2- | D4 z2 E2 | [DG-]4 G2 F2 x2 | [B,G]6 [DG]2 | [GB]2 [FB]2 [FB]2 [Ge]2 | %6
 e4 [FA]2 [Dd]2 | [DF]2 [DB]2 [^CA]3 [CE] | D6 [FB]2 | [Dd]3 [Fd] [Ec]2 [EB]2 | d4 [Ac]2 [EA]2 | %11
 [Cc]3 [Ec] [DB]2 [DA]2 | [DB]6 [DB]2 | [EG]3 [DG] [^CG]2 G2 | [Gd]4 [DB]2 [DG]2 | %15
 D2 [Ec]2 [DB]2 [CA]2 | [B,G]6 |] %17
V:2
 x2 | x4 C4 | C2 B,2 G4 | x4 C4 x2 | x8 | x8 | G2 E2 x4 | x8 | x8 | x8 | F2 ^G2 x4 | x8 | x8 | x8 | %14
 x8 | x8 | x6 |] %17
V:3
 G,2 | G,2 G,2 E,3 F, | G,2 G,2 z2 [C,A,]2 | z2 A,3 G, x4 | G,6 [F,A,]2 | %5
 [E,B,]2 [E,A,]2 [E,G,]2 [D,B,]2 | [^C,A,]4 [D,A,]2 [B,,G,]2 | [A,,A,]2 [G,,E,]2 [A,,E,]3 [A,,G,] | %8
 [D,F,]6 [D,F,]2 | [B,,B,]3 [B,,A,] [E,^G,]2 [E,G,]2 | A,2 B,2 [A,,C]2 [C,E,]2 | %11
 [A,,A,]3 [A,,G,] [D,F,]2 [D,C]2 | [G,B,]6 G,2 | [E,B,]3 [E,B,] [E,A,]2 [E,G,]2 | %14
 (B,2 D2) [D,G,]2 [D,B,]2 | [D,C]2 D,2 [D,E,]2 [D,F,]2 | [G,,G,]6 |] %17
V:4
 G,2 | G,2 G,2 E,3 F, | G,2 G,2 x4 | ([D,B,]4 G,2) D,4 | x8 | x8 | x8 | x8 | x8 | x8 | E,4 x4 | %11
 x8 | x8 | x8 | D,4 x4 | x2 D,2 x4 | x6 |] %17

